X:72
T:Dark Girl, The
R:polka
S:Denis Murphy and Julia Clifford
I:speed 450
M:2/4
K:D
DE|F2A2 A2d2|B2d2 A3F|G2B2 ABAF|B2E2 GFED|\
F2A2 A2d2|BcdB ABAF|G2B2 ABAG|F2D2 D2:|*
DE|F2A2 ABde|f2fd e3d|B2dB A2F2|B2E2 GFED|\
F2A2 ABde|fefd e3d|B2dB ABAG|F2D2D2:|**
<end>
<start>
